X:1
T: Forglen House
C:William Marshall
R:Strathspey
Q: 128
K:Cm
M:4/4
L:1/16
|:G2|c2c2 c3G A6 F2|G2G2 G2EG FEDC B,2D2|EDEF GFG=A BABc B2G2|GFED B2D2 C4 C2G2|
c2c2 c3G A6 F2|G2G2 ((3G2E2G2) FEDC B,2D2|EDEF GFG=A BABc B2f2|edcB f2d2 c4 cdef|
gc3 g3f g2c2 c2de|f3g f2d2 B3c d2f2|gc3 g3f g2c2 c2e2|edcB gfed c4 cdef|
gc3 g3f g2c2 c2de|fgab fedc B3c d2f2|g2b2 f2g2 d2f2 c2d2|B2FB GFED C4 C2:|
